!!!OTL: Le'f Gefuodesch, d' Hinger rotschen, S. 51
!!!id: S0076
**kern
*clefG2
*k[f#]
*G:
{8.dd
16cc
=1
4b
4g
8.b
16cc
=2
4dd
4dd}
=3
{8f#
8g
=4
4a
8f#
8f#
8g
8e
=5
4d}
4r
=6
{8.dd
16cc
=7
4b
4g
8.b
16cc
=8
4dd
4dd}
=9
{8f#
8g
=10
4a
8f#
8f#
8g
8e
=11
4d}
4r
=12
{8f#
8g
=13
4a
4a
8b
8g
=14
4a
4a}
=15
{8b
8cc
=16
4dd
4dd
8cc
8b
=17
4a}
4r
=18
{8b
8g
=19
4dd
4dd
8b
8g
=20
4dd
4dd}
=21
{8g
8a
=22
4b
8b
8dd
8a
8b
=23
4g}
4r
==
*-
!!!minrhy: 16
!!!meters: 3/4 ]  ZZ[8
!!!cut: Le'f Gefuodesch, d' Hinger rotschen, S. 51
!!!reg: Luxemburg
!!!trd: Die Bauernhochzeit in fr&uuml;heren Zeiten
!!!rhy1: X_.X  X__X__X_.X  X__X__
!!!rhy2: X_X_  X__X_X_X_X_  X__0__
!!!key: S0076  16  G 3/4 ]  ZZ[8
!!!mod: HEPTATONIK IONISCH]  AMBITUS[8
!!!kad: 5-55-52251
!!!akz: 35_2-5_35_2-5_22_52_55_31_
!!!fot: 'a__b__a__b__c__bs"cs"bs"
!!!for: 'a__b__a__b__c__c__c__b__
!!!fok: 'V__^d_V__^d_/__^d_~a_^__
!! PHRAS[AUFTAKTIG]
!!!fkt: ??, Trinklied
!! SPEDENER, G:
!! PR[32] 2K[5] 2G[14] 3K[5] 3G[5] 4A[5] 4Ü[0] 5A[5] 6K[0] 6G[0]
!! 7K[0] 7G[0] 8A[0] MEHR[0] SI[36] ABS[22] SR[18] SP[18]
!! ST[7] 2k[9] 2g[14] 3k[0] 3g[5] 4d[0] 4ü[0] 5d[5] 6k[0] 6g[0]
!! 7k[0] 7g[0] 8d[0] mehr[0] si[32] dm[+4] sr[23] sp[9]
!! 1F[78] 2F[22] 3F[0] 4F[0] LF[0] 2P[0] 3P[0] 4P[0] TRI[0] DF[2] AB[23]
!! TF[0] U3K[0] U3[0] U4[0] U4Ü[0] U5[13] U6K[0] U6[0] U7K[0] U7[4]
!! N1[30] N2K[0] N2[26] N3K[0] N3[13] N4[4] N4Ü[0] N5[9] N6K[0] N6[0]
!!!n7k: 0] N7[0] O1[0] O2K[0] O2[0] O3K[0] O3[0] HÖ[0
!!!RNB: symbol: &uuml;  = u umlaut (UTF-8: Ã¼)
